X: 742
T: Song gege
%%abc-version 2.0
%%abcx-abcm2ps-target-version 5.9.1 (29 Sep 2008)
%%abc-creator hum2abc beta
%%abcx-conversion-date 2013/10/02 07:52:30
%%abc-edited-by Helmut Schaffrath
%%humdrum-veritas 751108367
%%humdrum-veritas-data 1202532275
%%continueall 1
%%barnumbers 0
L: 1/8
M: 4/4
K: G
c> B e d c BA2 [I:setbarnb 1]| 
c> B e d c BA2 | 
^c d =c A G A F E | 
D D E CD4 | 
A ED2A ED2 | 
c2c d e BA2 | 
c E G B A G F E | 
D2E CD4 |]  



